Obsidian/status/22s/qomp-stop-panel.svg

<svg xmlns="http://www.w3.org/2000/svg" width="22" height="22" version="1.1">
 <defs>
  <style id="current-color-scheme" type="text/css">
   .ColorScheme-Text { color:#d3dae3; } .ColorScheme-Highlight { color:#5294e2; }
  </style>
 </defs>
 <path style="fill:currentColor" class="ColorScheme-Text" d="M 11 3 C 6.568 3 3 6.568 3 11 C 3 15.432 6.568 19 11 19 C 15.432 19 19 15.432 19 11 C 19 6.568 15.432 3 11 3 z M 11 5 A 6 6 0 0 1 17 11 A 6 6 0 0 1 11 17 A 6 6 0 0 1 5 11 A 6 6 0 0 1 11 5 z M 13.5 6.9980469 L 9 7.0019531 L 9 11.095703 C 8.84 11.035703 8.68 11 8.5 11 C 7.6716 11 7 11.6716 7 12.5 C 7 13.3284 7.6716 14 8.5 14 C 9.3284 14 10 13.3284 10 12.5 L 10 9 L 13 9 L 13 11.09375 C 12.84 11.03375 12.68 10.998047 12.5 10.998047 C 11.6716 10.998047 11 11.669647 11 12.498047 C 11 13.326447 11.6716 13.998047 12.5 13.998047 C 13.3284 13.998047 14 13.326447 14 12.498047 L 14 6.9980469 L 13.5 6.9980469 z"/>
</svg>

<svg height="22" width="22" xmlns="http://www.w3.org/2000/svg"><path d="m11 3c-4.432 0-8 3.568-8 8s3.568 8 8 8 8-3.568 8-8-3.568-8-8-8zm0 2a6 6 0 0 1 6 6 6 6 0 0 1 -6 6 6 6 0 0 1 -6-6 6 6 0 0 1 6-6zm2.5 1.9980469-4.5.0039062v4.0937499c-.16-.06-.32-.095703-.5-.095703-.8284 0-1.5.6716-1.5 1.5s.6716 1.5 1.5 1.5 1.5-.6716 1.5-1.5v-3.5h3v2.09375c-.16-.06-.32-.095703-.5-.095703-.8284 0-1.5.6716-1.5 1.5s.6716 1.5 1.5 1.5 1.5-.6716 1.5-1.5v-5.5000001z" fill="#d3dae3"/></svg>
